svg/color/axs.svg

<svg width="64" height="65" viewBox="0 0 64 65" fill="none" xmlns="http://www.w3.org/2000/svg">
<rect y="0.303711" width="64.0053" height="64" rx="32" fill="#0055D5"/>
<rect x="0.5" y="0.803711" width="63.0053" height="63" rx="31.5" stroke="#070B14" stroke-opacity="0.15"/>
<path fill-rule="evenodd" clip-rule="evenodd" d="M17.4094 21.4749C17.4094 21.4749 13.9659 18.7229 13.7291 25.5197C13.4923 30.7869 13.4987 41.0141 15.9373 45.8461C16.9678 47.6637 18.3439 47.1069 20.9041 45.2957C23.1315 43.6509 31.1898 36.2269 34.6012 32.9693C38.0127 29.7117 44.9317 20.3677 46.3718 26.7165C46.9415 29.3853 47.6455 31.6509 47.1079 37.5709C46.9415 39.3949 46.1606 40.7773 42.6019 38.3069C39.9137 36.5789 37.3599 34.7229 37.3599 34.7229C37.3599 34.7229 36.867 33.8397 35.7021 35.2733C34.7868 36.4189 34.326 36.7005 35.7917 37.5709C37.2639 38.4413 44.7077 43.5741 47.5623 44.3741C49.9177 45.0589 51.2618 45.0461 51.3322 40.4189C51.3194 36.7453 51.1082 26.2301 49.7705 21.7501C48.7592 18.9597 47.2743 17.6925 44.0676 20.8285C40.861 23.9645 30.7481 33.7693 25.2181 38.2109C21.5506 40.9629 19.9824 43.4461 18.5999 38.8573C17.627 35.3821 16.3661 24.5661 20.3473 26.6269C22.8371 27.8173 24.0788 27.8109 23.1059 28.5597C22.133 29.3021 19.336 31.8685 19.336 31.8685C19.336 31.8685 18.4719 32.5661 18.8751 34.0765C19.2784 35.1325 19.2784 35.6573 21.4482 33.6157C23.6179 31.5741 25.2181 30.0317 25.2181 30.0317C25.2181 30.0317 25.5637 29.4877 26.5942 30.4925C27.6247 31.4973 27.7911 31.7789 27.7911 31.7789C27.7911 31.7789 28.0663 32.5277 29.1672 31.2285C30.2745 29.9293 30.9849 29.1357 28.892 27.9197C26.8054 26.6909 17.4094 21.4749 17.4094 21.4749Z" fill="white"/>
</svg>

<svg xmlns="http://www.w3.org/2000/svg" width="64" height="65" fill="none" viewBox="0 0 64 65"><rect width="64.005" height="64" y=".304" fill="#0055D5" rx="32"/><rect width="63.005" height="63" x=".5" y=".804" stroke="#070B14" stroke-opacity=".15" rx="31.5"/><path fill="#fff" fill-rule="evenodd" d="M17.41 21.475s-3.444-2.752-3.68 4.045c-.238 5.267-.231 15.494 2.207 20.326 1.03 1.818 2.407 1.26 4.967-.55 2.227-1.645 10.286-9.07 13.697-12.327 3.412-3.257 10.33-12.601 11.77-6.253.57 2.67 1.274 4.935.737 10.855-.166 1.824-.947 3.206-4.506.736-2.688-1.728-5.242-3.584-5.242-3.584s-.493-.883-1.658.55c-.915 1.146-1.376 1.427.09 2.298 1.472.87 8.916 6.003 11.77 6.803 2.356.685 3.7.672 3.77-3.955-.013-3.674-.224-14.189-1.562-18.669-1.01-2.79-2.496-4.058-5.702-.922-3.207 3.137-13.32 12.941-18.85 17.383-3.667 2.752-5.236 5.235-6.618.646-.973-3.475-2.234-14.29 1.747-12.23 2.49 1.19 3.732 1.184 2.759 1.933-.973.742-3.77 3.309-3.77 3.309s-.864.697-.46 2.208c.402 1.056.402 1.58 2.572-.461s3.77-3.584 3.77-3.584.346-.544 1.376.46 1.197 1.287 1.197 1.287.275.749 1.376-.55c1.107-1.3 1.818-2.093-.275-3.31-2.087-1.228-11.483-6.444-11.483-6.444" clip-rule="evenodd"/></svg>
